carriers/fedEx.svg

<svg width="128" height="64" viewBox="0 0 128 64" fill="none" xmlns="http://www.w3.org/2000/svg">
<rect width="128" height="64" rx="6" fill="white"/>
<path d="M91.8 28.24L95.252 32.052L98.58 28.24H105.688L98.744 36.048L105.784 43.924H98.388L94.964 40.084L91.572 43.924H84.436L91.412 36.084L84.436 28.24H91.8Z" fill="#FF5900"/>
<path d="M84.4361 28.24V33.54H76.5321V38.4H84.4361V43.924H70.7241V19.22H84.4361V24.724H76.5321V28.24H84.4361Z" fill="#FF5900"/>
<path d="M64.9438 19.22V29.332H64.8758C63.5958 27.856 61.9958 27.332 60.1438 27.332C56.3398 27.332 53.4718 29.916 52.4678 33.332C51.3238 29.576 48.3718 27.26 43.9798 27.26C40.4158 27.26 37.6078 28.86 36.1318 31.46V28.24H28.7758V24.724H36.7998V19.22H22.2158V43.924H28.7758V33.524H35.3278C35.1274 34.3217 35.0279 35.1415 35.0318 35.964C35.0318 41.116 38.9678 44.732 43.9918 44.732C48.2118 44.732 50.9998 42.732 52.4678 39.132H46.8358C46.0758 40.22 45.4998 40.54 43.9798 40.54C43.1036 40.5151 42.2713 40.1508 41.6586 39.5239C41.0459 38.897 40.7007 38.0566 40.6958 37.18H52.1438C52.6438 41.276 55.8318 44.78 60.2038 44.78C61.1281 44.7818 62.0384 44.5548 62.8536 44.1193C63.6688 43.6838 64.3635 43.0533 64.8758 42.284H64.9438V43.884H70.7238V19.22H64.9438ZM40.8798 33.62C41.0121 32.889 41.397 32.2278 41.9673 31.7518C42.5376 31.2758 43.257 31.0154 43.9998 31.016C44.7497 30.9843 45.4845 31.2336 46.0601 31.7153C46.6358 32.197 47.0108 32.8762 47.1118 33.62H40.8798ZM61.4278 40.168C59.2998 40.168 57.9718 38.168 57.9718 36.108C57.9718 33.892 59.1238 31.76 61.4278 31.76C63.8278 31.76 64.7718 33.892 64.7718 36.108C64.7718 38.2 63.7638 40.16 61.4278 40.16V40.168Z" fill="#2A007C"/>
</svg>

<svg xmlns="http://www.w3.org/2000/svg" width="128" height="64" fill="none"><rect width="128" height="64" fill="#fff" rx="6"/><path fill="#FF5900" d="m91.8 28.24 3.452 3.812 3.328-3.812h7.108l-6.944 7.808 7.04 7.876h-7.396l-3.424-3.84-3.392 3.84h-7.136l6.976-7.84-6.976-7.844H91.8ZM84.436 28.24v5.3h-7.904v4.86h7.904v5.524H70.724V19.22h13.712v5.504h-7.904v3.516h7.904Z"/><path fill="#2A007C" d="M64.944 19.22v10.112h-.068c-1.28-1.476-2.88-2-4.732-2-3.804 0-6.672 2.584-7.676 6-1.144-3.756-4.096-6.072-8.488-6.072-3.564 0-6.372 1.6-7.848 4.2v-3.22h-7.356v-3.516H36.8V19.22H22.216v24.704h6.56v-10.4h6.552c-.2.798-.3 1.617-.296 2.44 0 5.152 3.936 8.768 8.96 8.768 4.22 0 7.008-2 8.476-5.6h-5.632c-.76 1.088-1.336 1.408-2.856 1.408a3.38 3.38 0 0 1-3.284-3.36h11.448c.5 4.096 3.688 7.6 8.06 7.6a5.6 5.6 0 0 0 4.672-2.496h.068v1.6h5.78V19.22h-5.78ZM40.88 33.62A3.168 3.168 0 0 1 44 31.016a3.012 3.012 0 0 1 3.112 2.604H40.88Zm20.548 6.548c-2.128 0-3.456-2-3.456-4.06 0-2.216 1.152-4.348 3.456-4.348 2.4 0 3.344 2.132 3.344 4.348 0 2.092-1.008 4.052-3.344 4.052v.008Z"/></svg>
